X:110
T:Polska efter Johan Lundin
S:efter Johan Lundin
B:SMUS - katalog M6 bild 23 nr 110
Z:Nils L
R:Polska
O:Uppland
M:3/4
L:1/16
K:C
g4 e4 c4 | c2Bc dcBA B2G2 | g4 e4 c4 | edcB c4 C4 ::
DGBG DGBG DGBG | EGcG EGcG EGcG | DGBG DGBG DGBG | EGcG EGcG EGcG |
d4 d2e2 f2d2 | d2ef f4 e4 | d2>e2 f2e2 d2c2 | BcdB c4 C4 :|

